X:103
T:Pennyworth of all mild. JJo5.103
Q:3/8=100
M:6/8
L:1/8
B:J.Johnson Choice Collection Vol 5, 1750
Z:vmp.Mike Hicken 2015 www.village-music-project.org.uk
N:* There is no closing repeat sign shown in the original.
K:C
G|(A/B/c)A (B/c/d)B|c2g gec|f2d dBG|ABc BAG|
(A/B/c)A (B/c/d)B|c2g gec|f2d de^f|g3-g2 ?
|:g|a2f fga|ge/f/g E2g|f2d def|(e/f/g)e c2f|
fdB BGe|ecA AFc|B2G GAB|c3- c2 "*" ?

